X: 38088
T: Splendid Isolation
R: reel
M: 4/4
K: Gdorian
G2AG AdcA|G2AG FGAc|d2cA GABc|dg=fa g3a|
bgag gfde|f2ag fdcA|G3A FGAc|d2cA G4:|
g2ag fd[e2c2]|gfdc Addc|AG3 Acdc|AG3 F4|
FGAF G2FG|FGAF G2Ac|dg3 fgag|fdcA G4:|

